uploads/exercises/hit.svg

<svg width="32" height="35" viewBox="0 0 32 35" fill="none" xmlns="http://www.w3.org/2000/svg">
<path d="M20.7627 28.4746C20.7627 28.8022 20.4971 29.0678 20.1695 29.0678C19.8419 29.0678 19.5763 28.8022 19.5763 28.4746C19.5763 28.147 19.8419 27.8814 20.1695 27.8814C20.4971 27.8814 20.7627 28.147 20.7627 28.4746ZM25.9279 22.123C25.6962 21.8913 25.3207 21.8913 25.0891 22.123L24.6186 22.5934L24.1482 22.123C23.9166 21.8913 23.5411 21.8913 23.3094 22.123C23.0778 22.3546 23.0778 22.7301 23.3094 22.9618L23.7798 23.4322L23.3094 23.9026C23.0778 24.1343 23.0778 24.5098 23.3094 24.7414C23.4252 24.8573 23.5771 24.9153 23.7288 24.9153C23.8805 24.9153 24.0324 24.8573 24.1482 24.7414L24.6186 24.271L25.0891 24.7414C25.2049 24.8573 25.3568 24.9153 25.5085 24.9153C25.6602 24.9153 25.8121 24.8573 25.9279 24.7414C26.1595 24.5098 26.1595 24.1343 25.9279 23.9026L25.4575 23.4322L25.9279 22.9618C26.1597 22.7301 26.1597 22.3546 25.9279 22.123ZM31.4407 8.30509V14.2373C31.4407 15.8726 30.1099 17.2034 28.4746 17.2034H14.2373C13.4649 17.2034 12.8127 17.7008 12.5669 18.3898H14.2373C14.5652 18.3898 14.8305 18.6554 14.8305 18.9831V20.7627C14.8305 21.0903 14.5652 21.3559 14.2373 21.3559V29.9576C14.2373 31.1024 13.3058 32.0339 12.161 32.0339H11.5678C10.423 32.0339 9.49153 31.1024 9.49153 29.9576V21.3559C9.16362 21.3559 8.8983 21.0903 8.8983 20.7627V18.9831C8.8983 18.6554 9.16362 18.3898 9.49153 18.3898H11.3311C11.6068 17.0377 12.805 16.0169 14.2373 16.0169H28.4746C29.4559 16.0169 30.2542 15.2186 30.2542 14.2373V8.30509C30.2542 7.32375 29.4559 6.52542 28.4746 6.52542H27.2881V10.0847C27.2881 11.7201 25.9574 13.0508 24.322 13.0508H18.9831C17.3477 13.0508 16.0169 11.7201 16.0169 10.0847V8.30509C16.0169 6.66972 17.3477 5.33898 18.9831 5.33898H26.1017V2.9661C26.1017 1.98477 25.3034 1.18644 24.322 1.18644H12.5318C7.58447 1.18644 3.55932 5.21159 3.55932 10.1592V21.3559H5.33898C5.66689 21.3559 5.9322 21.6215 5.9322 21.9492V23.7288C5.9322 24.0564 5.66689 24.322 5.33898 24.322V32.9237C5.33898 34.0685 4.40748 35 3.26271 35H2.66949C1.52472 35 0.59322 34.0685 0.59322 32.9237V24.322C0.265318 24.322 0 24.0564 0 23.7288V21.9492C0 21.6215 0.265318 21.3559 0.59322 21.3559H2.37288V10.1592C2.37288 4.55742 6.9303 0 12.5318 0H24.322C25.9574 0 27.2881 1.33074 27.2881 2.9661V5.33898H28.4746C30.1099 5.33898 31.4407 6.66972 31.4407 8.30509ZM4.15254 24.322H1.77966V32.9237C1.77966 33.4145 2.17875 33.8136 2.66949 33.8136H3.26271C3.75345 33.8136 4.15254 33.4145 4.15254 32.9237V24.322ZM26.1017 6.52542H18.9831C18.0017 6.52542 17.2034 7.32375 17.2034 8.30509V10.0847C17.2034 11.0661 18.0017 11.8644 18.9831 11.8644H24.322C25.3034 11.8644 26.1017 11.0661 26.1017 10.0847V6.52542ZM13.0508 21.3559H10.678V29.9576C10.678 30.4484 11.0771 30.8475 11.5678 30.8475H12.161C12.6518 30.8475 13.0508 30.4484 13.0508 29.9576V21.3559ZM9.49153 13.0508C8.51019 13.0508 7.71186 12.2525 7.71186 11.2712C7.71186 10.2899 8.51019 9.49153 9.49153 9.49153C10.4729 9.49153 11.2712 10.2899 11.2712 11.2712C11.2712 12.2525 10.4729 13.0508 9.49153 13.0508ZM9.49153 11.8644C9.81884 11.8644 10.0847 11.5982 10.0847 11.2712C10.0847 10.9442 9.81884 10.678 9.49153 10.678C9.16422 10.678 8.8983 10.9442 8.8983 11.2712C8.8983 11.5982 9.16422 11.8644 9.49153 11.8644Z" fill="#f1e8e8"/>
</svg>

<svg width="32" height="35" fill="none" xmlns="http://www.w3.org/2000/svg"><path d="M20.763 28.475a.593.593 0 1 1-1.187 0 .593.593 0 0 1 1.187 0Zm5.165-6.352a.593.593 0 0 0-.839 0l-.47.47-.47-.47a.593.593 0 1 0-.84.839l.47.47-.47.47a.593.593 0 0 0 .84.84l.47-.471.47.47a.591.591 0 0 0 .839 0 .593.593 0 0 0 0-.838l-.47-.47.47-.471a.593.593 0 0 0 0-.839ZM31.44 8.305v5.932a2.97 2.97 0 0 1-2.966 2.966H14.237c-.772 0-1.424.498-1.67 1.187h1.67c.328 0 .594.265.594.593v1.78a.593.593 0 0 1-.594.593v8.602a2.079 2.079 0 0 1-2.076 2.076h-.593a2.079 2.079 0 0 1-2.076-2.076v-8.602a.593.593 0 0 1-.594-.593v-1.78c0-.328.266-.593.594-.593h1.84a2.971 2.971 0 0 1 2.905-2.373h14.238c.98 0 1.78-.798 1.78-1.78V8.305c0-.981-.8-1.78-1.78-1.78h-1.187v3.56a2.97 2.97 0 0 1-2.966 2.966h-5.339a2.97 2.97 0 0 1-2.966-2.966v-1.78a2.97 2.97 0 0 1 2.966-2.966h7.119V2.966c0-.981-.799-1.78-1.78-1.78h-11.79c-4.948 0-8.973 4.026-8.973 8.973v11.197h1.78c.328 0 .593.265.593.593v1.78a.593.593 0 0 1-.593.593v8.602A2.079 2.079 0 0 1 3.263 35h-.594a2.079 2.079 0 0 1-2.076-2.076v-8.602A.593.593 0 0 1 0 23.729v-1.78c0-.328.265-.593.593-.593h1.78V10.159C2.373 4.557 6.93 0 12.532 0h11.79a2.97 2.97 0 0 1 2.966 2.966V5.34h1.187a2.97 2.97 0 0 1 2.966 2.966ZM4.153 24.322H1.78v8.602c0 .49.399.89.89.89h.593c.49 0 .89-.4.89-.89v-8.602ZM26.102 6.525h-7.119c-.981 0-1.78.799-1.78 1.78v1.78c0 .981.799 1.78 1.78 1.78h5.339c.981 0 1.78-.799 1.78-1.78v-3.56ZM13.05 21.355h-2.373v8.603c0 .49.4.89.89.89h.593c.49 0 .89-.4.89-.89v-8.602Zm-3.56-8.304c-.98 0-1.78-.799-1.78-1.78s.8-1.78 1.78-1.78c.982 0 1.78.799 1.78 1.78s-.798 1.78-1.78 1.78Zm0-1.187a.594.594 0 1 0 0-1.187.594.594 0 0 0 0 1.187Z" fill="#946E86"/></svg>
